icons/svg/panel-left-expand.svg

<svg width="24" height="24" viewBox="0 0 24 24" fill="none" xmlns="http://www.w3.org/2000/svg">
<path d="M9.25 4.75H5.75C4.09315 4.75 2.75 6.09315 2.75 7.75V16.25C2.75 17.9069 4.09315 19.25 5.75 19.25H9.25M9.25 4.75H18.25C19.9069 4.75 21.25 6.09315 21.25 7.75V16.25C21.25 17.9069 19.9069 19.25 18.25 19.25H9.25M9.25 4.75V19.25" stroke="currentColor" stroke-width="1.5" stroke-linecap="round" stroke-linejoin="round"/>
<path d="M15.3909 14.25L17.6 12M17.6 12L15.3909 9.75M17.6 12H12.9" stroke="currentColor" stroke-width="1.5" stroke-linecap="round" stroke-linejoin="round"/>
</svg>

<svg xmlns="http://www.w3.org/2000/svg" width="24" height="24" fill="none" viewBox="0 0 24 24"><path stroke="currentColor" stroke-linecap="round" stroke-linejoin="round" stroke-width="1.5" d="M9.25 4.75h-3.5a3 3 0 0 0-3 3v8.5a3 3 0 0 0 3 3h3.5m0-14.5h9a3 3 0 0 1 3 3v8.5a3 3 0 0 1-3 3h-9m0-14.5v14.5m6.14-5L17.6 12m0 0-2.21-2.25M17.6 12h-4.7"/></svg>
